;FLAVOR:UltiGCode
;TIME:8030
;MATERIAL:14043
;MATERIAL2:0
;NOZZLE_DIAMETER:0.4
;MINX:81.948
;MINY:67.556
;MINZ:0.27
;MAXX:141.052
;MAXY:155.444
;MAXZ:23.82
;Generated with Cura_SteamEngine 4.13.1
M82 ;absolute extrusion mode
G0 F3000 Y50 ;avoid prime blob
G92 E0
G92 E0
G10
;LAYER_COUNT:158
;LAYER:0
M107
G0 F4500 X88.88 Y70.427 Z0.27
;TYPE:SKIRT
G11
G1 F1800 X89.307 Y69.966 E0.05938
G1 X89.41 Y69.863 E0.07315
G1 X89.998 Y69.33 E0.14814
G1 X90.637 Y68.86 E0.2231
G1 X91.321 Y68.457 E0.29813
G1 X92.041 Y68.124 E0.37309
G1 X92.791 Y67.866 E0.44804
G1 X93.564 Y67.684 E0.52309
G1 X94.35 Y67.581 E0.598
G1 X94.978 Y67.556 E0.65739
G1 X128.022 Y67.556 E3.78005
G1 X128.814 Y67.596 E3.85499
G1 X129.599 Y67.715 E3.93002
G1 X130.367 Y67.913 E4.00497
G1 X131.112 Y68.188 E4.08002
G1 X131.825 Y68.535 E4.15495
G1 X132.5 Y68.953 E4.22998
G1 X133.129 Y69.436 E4.30492
G1 X133.59 Y69.863 E4.3643
G1 X133.693 Y69.966 E4.37807
G1 X134.226 Y70.554 E4.45307
G1 X134.696 Y71.193 E4.52803
G1 X135.099 Y71.877 E4.60305
G1 X135.432 Y72.597 E4.67801
G1 X135.69 Y73.347 E4.75296
G1 X135.872 Y74.12 E4.82801
G1 X135.975 Y74.906 E4.90292
G1 X136 Y75.534 E4.96232
G1 X136 Y78.963 E5.28636
G1 X135.96 Y79.755 E5.3613
G1 X135.841 Y80.54 E5.43633
G1 X135.643 Y81.308 E5.51127
G1 X135.368 Y82.053 E5.58632
G1 X135.021 Y82.766 E5.66125
G1 X134.747 Y83.209 E5.71048
G1 X135.081 Y83.769 E5.7721
G1 X135.417 Y84.487 E5.84701
G1 X135.68 Y85.236 E5.92203
G1 X135.865 Y86.008 E5.99705
G1 X135.972 Y86.794 E6.07201
G1 X136 Y87.46 E6.135
G1 X136 Y89.45 E6.32306
G1 X135.96 Y90.242 E6.39799
G1 X135.841 Y91.027 E6.47303
G1 X135.643 Y91.795 E6.54797
G1 X135.368 Y92.54 E6.62302
G1 X135.021 Y93.253 E6.69795
G1 X134.744 Y93.7 E6.74765
G1 X134.99 Y94.09 E6.79122
G1 X135.344 Y94.801 E6.86628
G1 X135.624 Y95.543 E6.94123
G1 X135.828 Y96.31 E7.01623
G1 X135.953 Y97.093 E7.09116
G1 X136 Y97.948 E7.17208
G1 X136 Y114.523 E8.73841
G1 X136.557 Y114.794 E8.79695
G1 X137.232 Y115.212 E8.87198
G1 X137.861 Y115.695 E8.94692
G1 X138.322 Y116.122 E9.0063
G1 X138.745 Y116.545 E9.06283
G1 X139.278 Y117.133 E9.13783
G1 X139.748 Y117.772 E9.21279
G1 X140.151 Y118.456 E9.28781
G1 X140.484 Y119.176 E9.36278
G1 X140.742 Y119.926 E9.43773
G1 X140.924 Y120.699 E9.51278
G1 X141.027 Y121.485 E9.58769
G1 X141.052 Y122.113 E9.64708
G1 X141.052 Y123.147 E9.74479
G1 X141.012 Y123.939 E9.81973
G1 X140.893 Y124.724 E9.89476
G1 X140.695 Y125.492 E9.96971
G1 X140.42 Y126.237 E10.04476
G1 X140.073 Y126.95 E10.11969
G1 X139.655 Y127.625 E10.19472
G1 X139.172 Y128.254 E10.26966
G1 X138.745 Y128.715 E10.32904
G1 X138.322 Y129.138 E10.38558
G1 X137.734 Y129.671 E10.46057
G1 X137.095 Y130.141 E10.53553
G1 X136.411 Y130.544 E10.61056
G1 X135.691 Y130.877 E10.68552
G1 X135.087 Y131.085 E10.74589
G1 X135.021 Y131.22 E10.76009
G1 X134.747 Y131.663 E10.80931
G1 X135.081 Y132.223 E10.87093
G1 X135.417 Y132.941 E10.94584
G1 X135.68 Y133.69 E11.02086
G1 X135.865 Y134.462 E11.09588
G1 X135.972 Y135.248 E11.17084
G1 X136 Y135.914 E11.23384
G1 X136 Y137.926 E11.42397
G1 X135.96 Y138.718 E11.49891
G1 X135.841 Y139.503 E11.57394
G1 X135.643 Y140.271 E11.64889
G1 X135.368 Y141.016 E11.72393
G1 X135.021 Y141.729 E11.79887
G1 X134.744 Y142.177 E11.84864
G1 X134.987 Y142.563 E11.89175
G1 X135.341 Y143.273 E11.96672
G1 X135.622 Y144.015 E12.0417
G1 X135.826 Y144.782 E12.1167
G1 X135.952 Y145.565 E12.19164
G1 X135.999 Y146.424 E12.27294
G1 X135.999 Y146.591 E12.28872
G1 X135.959 Y147.383 E12.36366
G1 X135.859 Y148.067 E12.42899
G1 X135.788 Y148.439 E12.46478
G1 X135.601 Y149.21 E12.53975
G1 X135.336 Y149.958 E12.61474
G1 X134.998 Y150.676 E12.68973
G1 X134.635 Y151.286 E12.75681
G1 X134.188 Y151.926 E12.83058
G1 X133.693 Y152.547 E12.90563
G1 X133.138 Y153.114 E12.98061
G1 X132.528 Y153.622 E13.05562
G1 X131.701 Y154.166 E13.14917
G1 X131.379 Y154.35 E13.18421
G1 X130.671 Y154.709 E13.25923
G1 X129.931 Y154.994 E13.33417
G1 X128.779 Y155.279 E13.44631
G1 X128.476 Y155.33 E13.47535
G1 X127.511 Y155.432 E13.56705
G1 X127.077 Y155.443 E13.60808
G1 X101.275 Y155.444 E16.04636
G1 X100.619 Y155.442 E16.10836
G1 X95.839 Y155.441 E16.56007
G1 X95.047 Y155.401 E16.63501
G1 X94.275 Y155.284 E16.70879
G1 X93.935 Y155.215 E16.74158
G1 X93.166 Y155.018 E16.8166
G1 X92.595 Y154.816 E16.87383
G1 X92.527 Y154.789 E16.88075
G1 X91.805 Y154.46 E16.95573
G1 X91.12 Y154.059 E17.03073
G1 X90.422 Y153.558 E17.11193
G1 X89.809 Y153.054 E17.18692
G1 X89.25 Y152.491 E17.2619
G1 X88.751 Y151.874 E17.33688
G1 X88.316 Y151.211 E17.41182
G1 X88.131 Y150.895 E17.44642
G1 X87.765 Y150.191 E17.5214
G1 X87.472 Y149.453 E17.59644
G1 X87.254 Y148.69 E17.67143
G1 X87.143 Y148.107 E17.72751
G1 X87.091 Y147.767 E17.76002
G1 X87.01 Y146.977 E17.83506
G1 X87 Y146.425 E17.88723
G1 X87.04 Y145.633 E17.96217
G1 X87.159 Y144.848 E18.0372
G1 X87.357 Y144.08 E18.11215
G1 X87.632 Y143.335 E18.1872
G1 X87.979 Y142.622 E18.26213
G1 X88.253 Y142.179 E18.31136
G1 X87.919 Y141.619 E18.37298
G1 X87.583 Y140.901 E18.44789
G1 X87.32 Y140.152 E18.52291
G1 X87.135 Y139.38 E18.59792
G1 X87.028 Y138.594 E18.67289
G1 X87 Y137.928 E18.73588
G1 X87 Y135.916 E18.92601
G1 X87.04 Y135.124 E19.00095
G1 X87.159 Y134.339 E19.07598
G1 X87.357 Y133.571 E19.15093
G1 X87.632 Y132.826 E19.22598
G1 X87.979 Y132.113 E19.30091
G1 X88.256 Y131.666 E19.35061
G1 X87.919 Y131.093 E19.41343
G1 X87.901 Y131.088 E19.41519
G1 X87.156 Y130.813 E19.49024
G1 X86.443 Y130.466 E19.56517
G1 X85.768 Y130.048 E19.6402
G1 X85.139 Y129.565 E19.71514
G1 X84.678 Y129.138 E19.77452
G1 X84.255 Y128.715 E19.83105
G1 X83.722 Y128.127 E19.90605
G1 X83.252 Y127.488 E19.98101
G1 X82.849 Y126.804 E20.05604
G1 X82.516 Y126.084 E20.131
G1 X82.258 Y125.334 E20.20595
G1 X82.076 Y124.561 E20.281
G1 X81.973 Y123.775 E20.35591
G1 X81.948 Y123.147 E20.4153
G1 X81.948 Y122.113 E20.51302
G1 X81.988 Y121.321 E20.58795
G1 X82.107 Y120.536 E20.66298
G1 X82.305 Y119.768 E20.73793
G1 X82.58 Y119.023 E20.81298
G1 X82.927 Y118.31 E20.88791
G1 X83.345 Y117.635 E20.96294
G1 X83.828 Y117.006 E21.03788
G1 X84.255 Y116.545 E21.09727
G1 X84.678 Y116.122 E21.1538
G1 X85.266 Y115.589 E21.22879
G1 X85.905 Y115.119 E21.30375
G1 X86.589 Y114.716 E21.37878
G1 X87 Y114.526 E21.42157
G1 X87 Y97.949 E22.98809
G1 X87.04 Y97.157 E23.06303
G1 X87.159 Y96.372 E23.13806
G1 X87.357 Y95.604 E23.21301
G1 X87.632 Y94.859 E23.28806
G1 X87.979 Y94.146 E23.36299
G1 X88.253 Y93.703 E23.41222
G1 X87.919 Y93.143 E23.47383
G1 X87.583 Y92.425 E23.54875
G1 X87.32 Y91.676 E23.62376
G1 X87.135 Y90.904 E23.69878
G1 X87.028 Y90.118 E23.77375
G1 X87 Y89.452 E23.83674
G1 X87 Y87.462 E24.02479
G1 X87.04 Y86.67 E24.09973
G1 X87.159 Y85.885 E24.17476
G1 X87.357 Y85.117 E24.24971
G1 X87.632 Y84.372 E24.32476
G1 X87.979 Y83.659 E24.39969
G1 X88.256 Y83.212 E24.44939
G1 X88.01 Y82.822 E24.49296
G1 X87.656 Y82.111 E24.56802
G1 X87.376 Y81.369 E24.64296
G1 X87.172 Y80.602 E24.71796
G1 X87.047 Y79.819 E24.79289
G1 X87 Y78.964 E24.87381
G1 X87 Y75.534 E25.19795
G1 X87.04 Y74.742 E25.27289
G1 X87.159 Y73.957 E25.34792
G1 X87.357 Y73.189 E25.42287
G1 X87.632 Y72.444 E25.49791
G1 X87.979 Y71.731 E25.57285
G1 X88.397 Y71.056 E25.64788
G1 X88.88 Y70.427 E25.72282
G0 F4500 X89.227 Y70.562
G1 F1800 X89.657 Y70.11 E25.78177
G1 X90.233 Y69.591 E25.85504
G1 X90.859 Y69.133 E25.92834
G1 X91.53 Y68.743 E26.00168
G1 X92.236 Y68.423 E26.07493
G1 X92.972 Y68.178 E26.14824
G1 X93.73 Y68.01 E26.22161
G1 X94.5 Y67.921 E26.29486
G1 X94.978 Y67.906 E26.34005
G1 X128.022 Y67.906 E29.46271
G1 X128.797 Y67.946 E29.53604
G1 X129.563 Y68.065 E29.6093
G1 X130.313 Y68.263 E29.6826
G1 X131.039 Y68.537 E29.75593
G1 X131.732 Y68.884 E29.82917
G1 X132.386 Y69.301 E29.90247
G1 X132.994 Y69.783 E29.97579
G1 X133.446 Y70.213 E30.03474
G1 X133.965 Y70.789 E30.10801
G1 X134.423 Y71.415 E30.18131
G1 X134.813 Y72.086 E30.25465
G1 X135.133 Y72.792 E30.3279
G1 X135.378 Y73.528 E30.40121
G1 X135.546 Y74.286 E30.47458
G1 X135.635 Y75.056 E30.54783
G1 X135.65 Y75.534 E30.59302
G1 X135.65 Y78.963 E30.91706
G1 X135.61 Y79.738 E30.9904
G1 X135.491 Y80.504 E31.06365
G1 X135.293 Y81.254 E31.13696
G1 X135.019 Y81.98 E31.21029
G1 X134.672 Y82.673 E31.28353
G1 X134.329 Y83.211 E31.34382
G1 X134.403 Y83.311 E31.35558
G1 X134.796 Y83.979 E31.42882
G1 X135.119 Y84.684 E31.5021
G1 X135.368 Y85.419 E31.57543
G1 X135.54 Y86.175 E31.6487
G1 X135.632 Y86.945 E31.72198
G1 X135.65 Y87.46 E31.77068
G1 X135.65 Y89.45 E31.95874
G1 X135.61 Y90.225 E32.03207
G1 X135.491 Y90.991 E32.10533
G1 X135.293 Y91.741 E32.17863
G1 X135.019 Y92.467 E32.25196
G1 X134.672 Y93.16 E32.3252
G1 X134.33 Y93.697 E32.38536
G1 X134.38 Y93.764 E32.39326
G1 X134.777 Y94.43 E32.46653
G1 X135.104 Y95.134 E32.53989
G1 X135.357 Y95.867 E32.61317
G1 X135.532 Y96.622 E32.68641
G1 X135.629 Y97.392 E32.75975
G1 X135.65 Y97.948 E32.81233
G1 X135.65 Y114.75 E34.40011
G1 X135.771 Y114.796 E34.41235
G1 X136.464 Y115.143 E34.48559
G1 X137.118 Y115.56 E34.55888
G1 X137.726 Y116.042 E34.6322
G1 X138.075 Y116.369 E34.6774
G1 X138.498 Y116.792 E34.73393
G1 X139.017 Y117.368 E34.8072
G1 X139.475 Y117.994 E34.8805
G1 X139.865 Y118.665 E34.95384
G1 X140.185 Y119.371 E35.02709
G1 X140.43 Y120.107 E35.1004
G1 X140.598 Y120.865 E35.17377
G1 X140.687 Y121.635 E35.24701
G1 X140.702 Y122.113 E35.29221
G1 X140.702 Y123.147 E35.38992
G1 X140.662 Y123.922 E35.46326
G1 X140.543 Y124.688 E35.53651
G1 X140.345 Y125.438 E35.60981
G1 X140.071 Y126.164 E35.68315
G1 X139.724 Y126.857 E35.75638
G1 X139.307 Y127.511 E35.82968
G1 X138.825 Y128.119 E35.903
G1 X138.498 Y128.468 E35.9482
G1 X138.075 Y128.891 E36.00473
G1 X137.499 Y129.41 E36.078
G1 X136.873 Y129.868 E36.1513
G1 X136.202 Y130.258 E36.22464
G1 X135.496 Y130.578 E36.29789
G1 X134.837 Y130.797 E36.36351
G1 X134.672 Y131.127 E36.39838
G1 X134.329 Y131.665 E36.45867
G1 X134.403 Y131.765 E36.47043
G1 X134.796 Y132.433 E36.54367
G1 X135.119 Y133.138 E36.61695
G1 X135.368 Y133.873 E36.69029
G1 X135.54 Y134.629 E36.76356
G1 X135.632 Y135.399 E36.83684
G1 X135.65 Y135.914 E36.88553
G1 X135.65 Y137.926 E37.07567
G1 X135.61 Y138.701 E37.149
G1 X135.491 Y139.467 E37.22226
G1 X135.293 Y140.217 E37.29556
G1 X135.019 Y140.943 E37.36889
G1 X134.672 Y141.636 E37.44213
G1 X134.329 Y142.173 E37.50235
G1 X134.377 Y142.237 E37.50991
G1 X134.774 Y142.903 E37.58318
G1 X135.101 Y143.606 E37.65645
G1 X135.354 Y144.339 E37.72973
G1 X135.531 Y145.095 E37.8031
G1 X135.628 Y145.864 E37.87635
G1 X135.649 Y146.424 E37.9293
G1 X135.649 Y146.591 E37.94508
G1 X135.609 Y147.366 E38.01842
G1 X135.516 Y148.002 E38.07916
G1 X135.445 Y148.374 E38.11495
G1 X135.26 Y149.127 E38.18822
G1 X134.999 Y149.858 E38.26157
G1 X134.664 Y150.557 E38.33482
G1 X134.343 Y151.094 E38.39395
G1 X133.904 Y151.722 E38.46635
G1 X133.419 Y152.328 E38.5397
G1 X132.874 Y152.88 E38.61301
G1 X132.276 Y153.374 E38.68631
G1 X131.527 Y153.863 E38.77084
G1 X131.205 Y154.047 E38.80588
G1 X130.513 Y154.396 E38.87912
G1 X129.788 Y154.673 E38.95247
G1 X128.721 Y154.934 E39.05627
G1 X128.418 Y154.985 E39.08531
G1 X127.496 Y155.082 E39.17292
G1 X127.077 Y155.093 E39.21253
G1 X101.276 Y155.094 E41.65072
G1 X100.62 Y155.092 E41.71271
G1 X95.839 Y155.091 E42.16452
G1 X95.065 Y155.051 E42.23776
G1 X94.344 Y154.941 E42.30668
G1 X94.004 Y154.872 E42.33947
G1 X93.253 Y154.678 E42.41277
G1 X92.724 Y154.491 E42.46579
G1 X92.656 Y154.464 E42.4727
G1 X91.951 Y154.141 E42.54598
G1 X91.283 Y153.747 E42.61927
G1 X90.63 Y153.277 E42.6953
G1 X90.032 Y152.783 E42.7686
G1 X89.487 Y152.231 E42.84191
G1 X89.003 Y151.625 E42.9152
G1 X88.618 Y151.034 E42.98185
G1 X88.433 Y150.718 E43.01645
G1 X88.076 Y150.029 E43.08979
G1 X87.792 Y149.307 E43.1631
G1 X87.584 Y148.56 E43.23638
G1 X87.488 Y148.054 E43.28505
G1 X87.436 Y147.714 E43.31755
G1 X87.35 Y146.576 E43.4254
G1 X87.35 Y146.425 E43.43967
G1 X87.39 Y145.65 E43.51301
G1 X87.509 Y144.884 E43.58626
G1 X87.707 Y144.134 E43.65956
G1 X87.981 Y143.408 E43.7329
G1 X88.328 Y142.715 E43.80613
G1 X88.671 Y142.177 E43.86643
G1 X88.597 Y142.077 E43.87819
G1 X88.204 Y141.409 E43.95143
G1 X87.881 Y140.704 E44.02471
G1 X87.632 Y139.969 E44.09804
G1 X87.46 Y139.213 E44.17131
G1 X87.368 Y138.443 E44.24459
G1 X87.35 Y137.928 E44.29329
G1 X87.35 Y135.916 E44.48342
G1 X87.39 Y135.141 E44.55676
G1 X87.509 Y134.375 E44.63001
G1 X87.707 Y133.625 E44.70332
G1 X87.981 Y132.899 E44.77665
G1 X88.328 Y132.206 E44.84989
G1 X88.67 Y131.669 E44.91005
G1 X88.62 Y131.602 E44.91795
G1 X88.223 Y130.936 E44.99122
G1 X88.156 Y130.791 E45.00632
G1 X87.955 Y130.738 E45.02596
G1 X87.229 Y130.464 E45.09929
G1 X86.536 Y130.117 E45.17253
G1 X85.882 Y129.7 E45.24583
G1 X85.274 Y129.218 E45.31915
G1 X84.925 Y128.891 E45.36434
G1 X84.502 Y128.468 E45.42088
G1 X83.983 Y127.892 E45.49414
G1 X83.525 Y127.266 E45.56744
G1 X83.135 Y126.595 E45.64079
G1 X82.815 Y125.889 E45.71404
G1 X82.57 Y125.153 E45.78734
G1 X82.402 Y124.395 E45.86071
G1 X82.313 Y123.625 E45.93396
G1 X82.298 Y123.147 E45.97915
G1 X82.298 Y122.113 E46.07687
G1 X82.338 Y121.338 E46.1502
G1 X82.457 Y120.572 E46.22346
G1 X82.655 Y119.822 E46.29676
G1 X82.929 Y119.096 E46.37009
G1 X83.276 Y118.403 E46.44333
G1 X83.693 Y117.749 E46.51663
G1 X84.175 Y117.141 E46.58995
G1 X84.502 Y116.792 E46.63514
G1 X84.925 Y116.369 E46.69167
G1 X85.501 Y115.85 E46.76494
G1 X86.127 Y115.392 E46.83824
G1 X86.798 Y115.002 E46.91158
G1 X87.35 Y114.752 E46.96885
G1 X87.35 Y97.949 E48.55673
G1 X87.39 Y97.174 E48.63007
G1 X87.509 Y96.408 E48.70332
G1 X87.707 Y95.658 E48.77662
G1 X87.981 Y94.932 E48.84996
G1 X88.328 Y94.239 E48.92319
G1 X88.671 Y93.701 E48.98349
G1 X88.597 Y93.601 E48.99525
G1 X88.204 Y92.933 E49.06849
G1 X87.881 Y92.228 E49.14177
G1 X87.632 Y91.493 E49.2151
G1 X87.46 Y90.737 E49.28837
G1 X87.368 Y89.967 E49.36165
G1 X87.35 Y89.452 E49.41035
G1 X87.35 Y87.462 E49.59841
G1 X87.39 Y86.687 E49.67174
G1 X87.509 Y85.921 E49.745
G1 X87.707 Y85.171 E49.8183
G1 X87.981 Y84.445 E49.89163
G1 X88.328 Y83.752 E49.96487
G1 X88.67 Y83.215 E50.02503
G1 X88.62 Y83.148 E50.03293
G1 X88.223 Y82.482 E50.1062
G1 X87.896 Y81.778 E50.17956
G1 X87.643 Y81.045 E50.25284
G1 X87.468 Y80.29 E50.32608
G1 X87.371 Y79.52 E50.39942
G1 X87.35 Y78.964 E50.45199
G1 X87.35 Y75.534 E50.77613
G1 X87.39 Y74.759 E50.84946
G1 X87.509 Y73.993 E50.92272
G1 X87.707 Y73.243 E50.99602
G1 X87.981 Y72.517 E51.06935
G1 X88.328 Y71.824 E51.14259
G1 X88.745 Y71.17 E51.21589
G1 X89.227 Y70.562 E51.28921
G0 F4500 X89.093 Y71.286
G1 F1800 X89.802 Y70.461 E51.39201
G1 X89.905 Y70.358 E51.40577
G1 X90.468 Y69.851 E51.47737
G1 X91.081 Y69.407 E51.5489
G1 X91.738 Y69.029 E51.62053
G1 X92.43 Y68.723 E51.69203
G1 X93.152 Y68.492 E51.76367
G1 X93.893 Y68.338 E51.83519
G1 X94.978 Y68.256 E51.93801
G1 X128.022 Y68.256 E55.06067
G1 X128.778 Y68.296 E55.13221
G1 X129.526 Y68.415 E55.20379
G1 X130.257 Y68.613 E55.27535
G1 X130.964 Y68.887 E55.34701
G1 X131.637 Y69.233 E55.41852
G1 X132.27 Y69.649 E55.4901
G1 X133.095 Y70.358 E55.5929
G1 X133.198 Y70.461 E55.60666
G1 X133.705 Y71.024 E55.67826
G1 X134.149 Y71.637 E55.74979
G1 X134.527 Y72.294 E55.82142
G1 X134.833 Y72.986 E55.89292
G1 X135.064 Y73.708 E55.96455
G1 X135.218 Y74.449 E56.03607
G1 X135.3 Y75.534 E56.1389
G1 X135.3 Y78.963 E56.46294
G1 X135.26 Y79.719 E56.53448
G1 X135.141 Y80.467 E56.60606
G1 X134.943 Y81.198 E56.67763
G1 X134.669 Y81.905 E56.74928
G1 X134.323 Y82.578 E56.82079
G1 X133.907 Y83.211 E56.89237
G1 X134.13 Y83.534 E56.92946
G1 X134.511 Y84.188 E57.00099
G1 X134.82 Y84.88 E57.0726
G1 X135.055 Y85.6 E57.14418
G1 X135.212 Y86.341 E57.21576
G1 X135.3 Y87.46 E57.32183
G1 X135.3 Y89.45 E57.50988
G1 X135.26 Y90.206 E57.58142
G1 X135.141 Y90.954 E57.653
G1 X134.943 Y91.685 E57.72457
G1 X134.669 Y92.392 E57.79622
G1 X134.323 Y93.065 E57.86773
G1 X133.907 Y93.698 E57.93931
G1 X134.186 Y94.108 E57.98618
G1 X134.557 Y94.768 E58.05773
G1 X134.856 Y95.464 E58.12931
G1 X135.081 Y96.188 E58.20096
G1 X135.227 Y96.931 E58.27251
G1 X135.3 Y97.948 E58.36887
G1 X135.3 Y114.993 E59.97962
G1 X135.696 Y115.146 E60.01974
G1 X136.369 Y115.492 E60.09125
G1 X137.002 Y115.908 E60.16283
G1 X137.827 Y116.617 E60.26563
G1 X138.25 Y117.04 E60.32216
G1 X138.757 Y117.603 E60.39375
